X: 2123
T: the PERRIE WHERRIE
C:
Q: "Reel."
R: Reel.
%R: reel
N: This is version 1, for ABC software that doesn't understand voice overlays.
B: James Kerr "Merry Melodies" v.2 p.15 #123
Z: 2016 John Chambers <jc:trillian.mit.edu>
M: C
L: 1/8
K: G
uc |\
BGGA GAGc | BGGB gfgd |\
BGGA GAGB | A=FFA c3 ::\
c |\
(Bd)(de) dedc |
Bdde [1 gdec |\
(Bd)(de) dedB | A=FFA c3 :|\
[2 g3d | gbeg dgBg | A=FFA c3 |]
